Icons/com_motorola_camera.svg

<svg viewBox="0 0 48 48" xmlns:xlink="http://www.w3.org/1999/xlink">
 <defs>
  <linearGradient id="0">
   <stop stop-opacity="0"/>
   <stop offset="1"/>
  </linearGradient>
  <linearGradient xlink:href="#6" id="1" gradientUnits="userSpaceOnUse" gradientTransform="translate(4e-7,-48)" y1="47" x2="0" y2="1"/>
  <clipPath id="2">
   <g transform="translate(0,-1004.3622)">
    <rect rx="4" y="1005.36" x="1" height="46" width="46" fill="#1890d0"/>
   </g>
  </clipPath>
  <clipPath id="3">
   <g transform="translate(0,-1004.3622)">
    <rect rx="4" y="1005.36" x="1" height="46" width="46" fill="#1890d0"/>
   </g>
  </clipPath>
  <radialGradient id="4" gradientUnits="userSpaceOnUse" cx="6.773" cy="5.927" r="0.564" gradientTransform="matrix(3.543307,0,0,3.543307,0.000000147638,0.000377575)">
   <stop stop-color="#8fb0c7"/>
   <stop offset="1" stop-color="#8fb0c7" stop-opacity="0"/>
  </radialGradient>
  <radialGradient id="5" gradientUnits="userSpaceOnUse" cx="6" cy="17.292" r="1" gradientTransform="matrix(1,0,0,1,18,8.707971)">
   <stop stop-color="#8fb0c7"/>
   <stop offset="1" stop-color="#8fb0c7" stop-opacity="0"/>
  </radialGradient>
  <radialGradient id="6" gradientUnits="userSpaceOnUse" cx="6.773" cy="5.927" r="0.564" gradientTransform="matrix(3.543307,0,0,3.543307,0.000000147638,0.000377575)">
   <stop stop-color="#8fb0c7"/>
   <stop offset="1" stop-color="#8fb0c7" stop-opacity="0"/>
  </radialGradient>
  <radialGradient id="7" gradientUnits="userSpaceOnUse" cx="6" cy="17.292" r="1" gradientTransform="matrix(1,0,0,1,18,8.707971)">
   <stop stop-color="#8fb0c7"/>
   <stop offset="1" stop-color="#8fb0c7" stop-opacity="0"/>
  </radialGradient>
 </defs>
 <g>
  <g transform="translate(0,-1004.3622)">
   <path d="m 5,1006.3622 c -2.216,0 -4,1.784 -4,4 l 0,37.25 c 0,2.216 1.784,4 4,4 l 38,0 c 2.216,0 4,-1.784 4,-4 l 0,-37.25 c 0,-2.216 -1.784,-4 -4,-4 l -38,0 z m -4,41.5 0,0.5 c 0,2.216 1.784,4 4,4 l 38,0 c 2.216,0 4,-1.784 4,-4 l 0,-0.5 c 0,2.216 -1.784,4 -4,4 l -38,0 c -2.216,0 -4,-1.784 -4,-4 z" opacity="0.02"/>
   <path d="m 1,1047.6122 0,0.25 c 0,2.216 1.784,4 4,4 l 38,0 c 2.216,0 4,-1.784 4,-4 l 0,-0.25 c 0,2.216 -1.784,4 -4,4 l -38,0 c -2.216,0 -4,-1.784 -4,-4 z" opacity="0.05"/>
   <rect width="46" height="46" x="1" y="1005.61" rx="4" opacity="0.1"/>
  </g>
 </g>
 <g>
  <g transform="translate(0,-1004.3622)">
   <rect rx="4" y="1005.36" x="1" height="46" width="46" fill="#ff8275"/>
  </g>
 </g>
 <g>
  <rect transform="scale(1,-1)" width="46" height="46" x="1" y="-46.998" rx="4" opacity="0.1" fill="url(#7)"/>
 </g>
 <g>
  <g clip-path="url(#2)">
   <g opacity="0.1">
    <g>
     <path d="M 14 10 C 14 11.105469 13.105469 12 12 12 C 10.894531 12 10 11.105469 10 10 C 10 8.894531 10.894531 8 12 8 C 13.105469 8 14 8.894531 14 10 Z M 14 10 "/>
     <path d="M 38 24 C 38 31.730469 31.730469 38 24 38 C 16.269531 38 10 31.730469 10 24 C 10 16.269531 16.269531 10 24 10 C 31.730469 10 38 16.269531 38 24 Z M 38 24 "/>
     <path d="M 35 24 C 35 30.074219 30.074219 35 24 35 C 17.925781 35 13 30.074219 13 24 C 13 17.925781 17.925781 13 24 13 C 30.074219 13 35 17.925781 35 24 Z M 35 24 "/>
     <path d="M 32 24 C 32 28.417969 28.417969 32 24 32 C 19.582031 32 16 28.417969 16 24 C 16 19.582031 19.582031 16 24 16 C 28.417969 16 32 19.582031 32 24 Z M 32 24 "/>
     <path d="M 30 24 C 30 27.3125 27.3125 30 24 30 C 20.6875 30 18 27.3125 18 24 C 18 20.6875 20.6875 18 24 18 C 27.3125 18 30 20.6875 30 24 Z M 30 24 "/>
     <path d="M 26 21 C 26 22.105469 25.105469 23 24 23 C 22.894531 23 22 22.105469 22 21 C 22 19.894531 22.894531 19 24 19 C 25.105469 19 26 19.894531 26 21 Z M 26 21 "/>
     <path d="M 25 26 C 25 26.550781 24.550781 27 24 27 C 23.449219 27 23 26.550781 23 26 C 23 25.449219 23.449219 25 24 25 C 24.550781 25 25 25.449219 25 26 Z M 25 26 "/>
    </g>
   </g>
  </g>
 </g>
 <g>
  <g clip-path="url(#3)">
   <g transform="translate(0,-1)">
    <g>
     <path d="M 14 10 C 14 11.105469 13.105469 12 12 12 C 10.894531 12 10 11.105469 10 10 C 10 8.894531 10.894531 8 12 8 C 13.105469 8 14 8.894531 14 10 Z M 14 10 " fill="#ffec70"/>
     <path d="M 38 24 C 38 31.730469 31.730469 38 24 38 C 16.269531 38 10 31.730469 10 24 C 10 16.269531 16.269531 10 24 10 C 31.730469 10 38 16.269531 38 24 Z M 38 24 " fill="#f9f9f9"/>
     <path d="M 35 24 C 35 30.074219 30.074219 35 24 35 C 17.925781 35 13 30.074219 13 24 C 13 17.925781 17.925781 13 24 13 C 30.074219 13 35 17.925781 35 24 Z M 35 24 " fill="#355362"/>
     <path d="M 32 24 C 32 28.417969 28.417969 32 24 32 C 19.582031 32 16 28.417969 16 24 C 16 19.582031 19.582031 16 24 16 C 28.417969 16 32 19.582031 32 24 Z M 32 24 " fill="#546b7f"/>
     <path d="M 30 24 C 30 27.3125 27.3125 30 24 30 C 20.6875 30 18 27.3125 18 24 C 18 20.6875 20.6875 18 24 18 C 27.3125 18 30 20.6875 30 24 Z M 30 24 " fill="#355362"/>
     <path d="M 26 21 C 26 22.105469 25.105469 23 24 23 C 22.894531 23 22 22.105469 22 21 C 22 19.894531 22.894531 19 24 19 C 25.105469 19 26 19.894531 26 21 Z M 26 21 " fill="url(#6)"/>
     <path d="M 25 26 C 25 26.550781 24.550781 27 24 27 C 23.449219 27 23 26.550781 23 26 C 23 25.449219 23.449219 25 24 25 C 24.550781 25 25 25.449219 25 26 Z M 25 26 " fill="url(#7)"/>
    </g>
   </g>
  </g>
 </g>
 <g>
  <g transform="translate(0,-1004.3622)">
   <path d="m 1,1043.3622 0,4 c 0,2.216 1.784,4 4,4 l 38,0 c 2.216,0 4,-1.784 4,-4 l 0,-4 c 0,2.216 -1.784,4 -4,4 l -38,0 c -2.216,0 -4,-1.784 -4,-4 z" opacity="0.1"/>
  </g>
 </g>
</svg>

<svg viewBox="0 0 48 48" xmlns:xlink="http://www.w3.org/1999/xlink"><defs><linearGradient id="linearGradient3764" x1="1" x2="47" gradientUnits="userSpaceOnUse" gradientTransform="translate(-48.000001,0.00221467)"><stop stop-color="#ff7061" stop-opacity="1"/><stop offset="1" stop-color="#ff8275" stop-opacity="1"/></linearGradient><clipPath id="clipPath-444834282"><g transform="translate(0,-1004.3622)"><rect rx="4" y="1005.36" x="1" height="46" width="46" fill="#1890d0"/></g></clipPath><clipPath id="clipPath-460519536"><g transform="translate(0,-1004.3622)"><rect rx="4" y="1005.36" x="1" height="46" width="46" fill="#1890d0"/></g></clipPath><radialGradient id="0" gradientUnits="userSpaceOnUse" cx="6.773" cy="5.927" r="0.564" gradientTransform="matrix(3.543307,0,0,3.543307,0.000000147638,0.000377575)"><stop stop-color="#8fb0c7"/><stop offset="1" stop-color="#8fb0c7" stop-opacity="0"/></radialGradient><radialGradient id="1" gradientUnits="userSpaceOnUse" cx="6" cy="17.292" r="1" gradientTransform="matrix(1,0,0,1,18,8.707971)" xlink:href="#0"/><radialGradient id="0" gradientUnits="userSpaceOnUse" cx="6.773" cy="5.927" r="0.564" gradientTransform="matrix(3.543307,0,0,3.543307,0.000000147638,0.000377575)"><stop stop-color="#8fb0c7"/><stop offset="1" stop-color="#8fb0c7" stop-opacity="0"/></radialGradient><radialGradient id="1" gradientUnits="userSpaceOnUse" cx="6" cy="17.292" r="1" gradientTransform="matrix(1,0,0,1,18,8.707971)" xlink:href="#0"/></defs><g><path d="m 1 43 l 0 0.25 c 0 2.216 1.784 4 4 4 l 38 0 c 2.216 0 4 -1.784 4 -4 l 0 -0.25 c 0 2.216 -1.784 4 -4 4 l -38 0 c -2.216 0 -4 -1.784 -4 -4 z m 0 0.5 l 0 0.5 c 0 2.216 1.784 4 4 4 l 38 0 c 2.216 0 4 -1.784 4 -4 l 0 -0.5 c 0 2.216 -1.784 4 -4 4 l -38 0 c -2.216 0 -4 -1.784 -4 -4 z" opacity="0.02"/><path d="m 1 43.25 l 0 0.25 c 0 2.216 1.784 4 4 4 l 38 0 c 2.216 0 4 -1.784 4 -4 l 0 -0.25 c 0 2.216 -1.784 4 -4 4 l -38 0 c -2.216 0 -4 -1.784 -4 -4 z" opacity="0.05"/><path d="m 1 43 l 0 0.25 c 0 2.216 1.784 4 4 4 l 38 0 c 2.216 0 4 -1.784 4 -4 l 0 -0.25 c 0 2.216 -1.784 4 -4 4 l -38 0 c -2.216 0 -4 -1.784 -4 -4 z" opacity="0.1"/></g><g><rect width="46" height="46" x="-47" y="1" rx="4" transform="matrix(0,-1,1,0,0,0)" fill="url(#linearGradient3764)" fill-opacity="1"/></g><g><g clip-path="url(#clipPath-444834282)"><g opacity="0.1"><!-- color: #ff8275 --><g><path d="m 14 10 c 0 1.105 -0.895 2 -2 2 c -1.105 0 -2 -0.895 -2 -2 c 0 -1.105 0.895 -2 2 -2 c 1.105 0 2 0.895 2 2 m 0 0" fill="#000"/><path d="m 38 24 c 0 7.73 -6.27 14 -14 14 c -7.73 0 -14 -6.27 -14 -14 c 0 -7.73 6.27 -14 14 -14 c 7.73 0 14 6.27 14 14 m 0 0" fill="#000"/><path d="m 35 24 c 0 6.074 -4.926 11 -11 11 c -6.074 0 -11 -4.926 -11 -11 c 0 -6.074 4.926 -11 11 -11 c 6.074 0 11 4.926 11 11 m 0 0" fill="#000"/><path d="m 32 24 c 0 4.418 -3.582 8 -8 8 c -4.418 0 -8 -3.582 -8 -8 c 0 -4.418 3.582 -8 8 -8 c 4.418 0 8 3.582 8 8 m 0 0" fill="#000"/><path d="m 30 24 c 0 3.313 -2.688 6 -6 6 c -3.313 0 -6 -2.688 -6 -6 c 0 -3.313 2.688 -6 6 -6 c 3.313 0 6 2.688 6 6 m 0 0" fill="#000"/><path d="m 26 21 c 0 1.105 -0.895 2 -2 2 c -1.105 0 -2 -0.895 -2 -2 c 0 -1.105 0.895 -2 2 -2 c 1.105 0 2 0.895 2 2 m 0 0" fill="#000"/><path d="m 25 26 c 0 0.551 -0.449 1 -1 1 c -0.551 0 -1 -0.449 -1 -1 c 0 -0.551 0.449 -1 1 -1 c 0.551 0 1 0.449 1 1 m 0 0" fill="#000"/></g></g></g></g><g><g clip-path="url(#clipPath-460519536)"><g transform="translate(0,-1)"><!-- color: #ff8275 --><g><path d="m 14 10 c 0 1.105 -0.895 2 -2 2 c -1.105 0 -2 -0.895 -2 -2 c 0 -1.105 0.895 -2 2 -2 c 1.105 0 2 0.895 2 2 m 0 0" fill="#ffec70"/><path d="m 38 24 c 0 7.73 -6.27 14 -14 14 c -7.73 0 -14 -6.27 -14 -14 c 0 -7.73 6.27 -14 14 -14 c 7.73 0 14 6.27 14 14 m 0 0" fill="#f9f9f9"/><path d="m 35 24 c 0 6.074 -4.926 11 -11 11 c -6.074 0 -11 -4.926 -11 -11 c 0 -6.074 4.926 -11 11 -11 c 6.074 0 11 4.926 11 11 m 0 0" fill="#355362"/><path d="m 32 24 c 0 4.418 -3.582 8 -8 8 c -4.418 0 -8 -3.582 -8 -8 c 0 -4.418 3.582 -8 8 -8 c 4.418 0 8 3.582 8 8 m 0 0" fill="#546b7f"/><path d="m 30 24 c 0 3.313 -2.688 6 -6 6 c -3.313 0 -6 -2.688 -6 -6 c 0 -3.313 2.688 -6 6 -6 c 3.313 0 6 2.688 6 6 m 0 0" fill="#355362"/><path d="m 26 21 c 0 1.105 -0.895 2 -2 2 c -1.105 0 -2 -0.895 -2 -2 c 0 -1.105 0.895 -2 2 -2 c 1.105 0 2 0.895 2 2 m 0 0" fill="url(#0)"/><path d="m 25 26 c 0 0.551 -0.449 1 -1 1 c -0.551 0 -1 -0.449 -1 -1 c 0 -0.551 0.449 -1 1 -1 c 0.551 0 1 0.449 1 1 m 0 0" fill="url(#1)"/></g></g></g></g><g><g transform="translate(0,-1004.3622)"><path d="m 1 1043.36 0 4 c 0 2.216 1.784 4 4 4 l 38 0 c 2.216 0 4 -1.784 4 -4 l 0 -4 c 0 2.216 -1.784 4 -4 4 l -38 0 c -2.216 0 -4 -1.784 -4 -4 z" opacity="0.1"/></g></g></svg>
